packages/foundations/assets/icons/functional/images/business & payment/shopping_basket_14_filled.svg

<svg width="14" height="14" viewBox="0 0 14 14" fill="none" xmlns="http://www.w3.org/2000/svg">
<g clip-path="url(#clip0_2202_1479)">
<path fill-rule="evenodd" clip-rule="evenodd" d="M6.9775 2.09998C8.6365 2.09998 9.7925 3.30598 9.7925 4.88398H11.8875C12.3245 4.88398 12.6735 5.30098 12.5865 5.73898L11.4945 11.33C11.4599 11.49 11.372 11.6335 11.2452 11.737C11.1184 11.8406 10.9602 11.898 10.7965 11.9H3.2025C3.04127 11.8975 2.88585 11.8394 2.76249 11.7355C2.63914 11.6317 2.55543 11.4884 2.5255 11.33L1.4125 5.73998C1.39313 5.63653 1.39657 5.53011 1.42259 5.42814C1.44861 5.32616 1.49657 5.2311 1.56314 5.14959C1.6297 5.06807 1.71326 5.00207 1.80797 4.95619C1.90269 4.91032 2.00628 4.88567 2.1115 4.88398H4.2065C4.2065 3.32798 5.3395 2.09998 6.9775 2.09998ZM6.9995 3.49998C6.1265 3.49998 5.6025 4.09198 5.6025 4.90298H8.3965C8.3965 4.09198 7.8495 3.49998 6.9995 3.49998Z" fill="#1A1C1F"/>
</g>
<defs>
<clipPath id="clip0_2202_1479">
<rect width="14" height="14" fill="white"/>
</clipPath>
</defs>
</svg>

<svg xmlns="http://www.w3.org/2000/svg" width="14" height="14" fill="none"><g clip-path="url(#a)"><path fill="#1A1C1F" fill-rule="evenodd" d="M6.978 2.1c1.659 0 2.815 1.206 2.815 2.784h2.095c.437 0 .786.417.698.855l-1.091 5.591a.72.72 0 0 1-.698.57H3.202a.7.7 0 0 1-.677-.57L1.413 5.74a.723.723 0 0 1 .698-.856h2.096c0-1.556 1.133-2.784 2.77-2.784M7 3.5c-.873 0-1.397.592-1.397 1.403h2.794C8.397 4.092 7.849 3.5 7 3.5" clip-rule="evenodd"/></g><defs><clipPath id="a"><path fill="#fff" d="M0 0h14v14H0z"/></clipPath></defs></svg>
